build/system/ServerSolid.svg

<svg xmlns="http://www.w3.org/2000/svg" fill="none" viewBox="0 0 24 24" focusable="false"><path d="M0 0H24V24H0z"/><path fill="#74767B" fill-rule="evenodd" d="M19.9932 6C19.9932 4.34326 18.6499 3 16.9932 3L7 3C5.34326 3 4 4.34326 4 6L4 11.3501L19.9932 11.3501L19.9932 6ZM19.9932 12.6499L4 12.6499L4 18C4 19.6567 5.34326 21 7 21L16.9932 21C18.6499 21 19.9932 19.6567 19.9932 18L19.9932 12.6499ZM9 7C8.44775 7 8 7.44775 8 8C8 8.55225 8.44775 9 9 9C9.55225 9 10 8.55225 10 8C10 7.44775 9.55225 7 9 7ZM8 16C8 15.4478 8.44775 15 9 15C9.55225 15 10 15.4478 10 16C10 16.5522 9.55225 17 9 17C8.44775 17 8 16.5522 8 16Z"/></svg>

<svg xmlns="http://www.w3.org/2000/svg" fill="none" viewBox="0 0 24 24" focusable="false"><path fill="#74767B" fill-rule="evenodd" d="M19.99 6c0-1.66-1.35-3-3-3H7C5.34 3 4 4.34 4 6v5.35h15.99zm0 6.64H4V18c0 1.65 1.34 3 3 3h9.99c1.65 0 3-1.35 3-3zM9 7c-.56 0-1 .44-1 1 0 .55.44 1 1 1 .55 0 1-.45 1-1 0-.56-.45-1-1-1m-1 9c0-.56.44-1 1-1 .55 0 1 .44 1 1 0 .55-.45 1-1 1-.56 0-1-.45-1-1"/></svg>
